X: 6
M:2/4
L:1/16
K:G
u((3def)|\
k[B2g2]k[B2g2] z2 vGA | BdcA BdcA | k[B2g2]k[B2g2] z2 AB | cABG AFED |
k[B2g2]k[B2g2] z2 GA  | BdcA BdcB | agfa gedc | BG"_4"AF G2  H::
uB2|\
k[B2e2]k[B2e2] z2 u[A2f2] | k[B2g2]k[B2g2] z2 [c2a2] |
"21"[^db]"1"a"2"b"3"c' babc' | [^d4b4] z2 "D.C.":|


